X:23
T:120. The Templehouse
S:Mike Rafferty
Z:Lesl
M:C|
L:1/8
K:Em
D|:EFGA BFAF|D2ED ADED|EFGA B2~e2|dBAF BEED:|
|ggef geag|f2df afd2|ggef gfed|B2AF B E~Ee|
ggef geag|ffdf afda|~e3f gfed|B2AF BEED|E8||

